icons/mono/stataweeth.svg

<svg width="32" height="32" viewBox="0 0 32 32" fill="none" xmlns="http://www.w3.org/2000/svg">
  <path fill-rule="evenodd" clip-rule="evenodd"
    d="M31.9514 17.2566L29.9574 17.1017C29.9856 16.7385 30 16.3711 30 16C30 15.6289 29.9856 15.2615 29.9574 14.8983L31.9514 14.7434C31.9836 15.158 32 15.5771 32 16C32 16.4229 31.9836 16.842 31.9514 17.2566ZM31.5613 12.2633L29.6162 12.7286C29.4442 12.0098 29.2167 11.3125 28.9385 10.6415L30.7859 9.87539C31.1042 10.643 31.3645 11.4408 31.5613 12.2633ZM29.6443 7.63905L27.94 8.68564C27.5553 8.05912 27.1224 7.46495 26.6466 6.90831L28.1668 5.60871C28.7102 6.24434 29.2046 6.92307 29.6443 7.63905ZM26.3913 3.83321L25.0917 5.35342C24.535 4.87756 23.9409 4.44473 23.3144 4.06L24.361 2.35569C25.0769 2.79537 25.7557 3.28982 26.3913 3.83321ZM22.1246 1.21409L21.3585 3.06154C20.6875 2.78328 19.9902 2.5558 19.2714 2.38381L19.7367 0.438703C20.5592 0.635478 21.357 0.895765 22.1246 1.21409ZM17.2566 0.0486182L17.1017 2.04261C16.7385 2.0144 16.3711 2 16 2C15.6289 2 15.2615 2.0144 14.8983 2.04261L14.7434 0.0486183C15.158 0.0164067 15.5771 0 16 0C16.4229 0 16.842 0.0164067 17.2566 0.0486182ZM12.2633 0.438703L12.7286 2.38381C12.0098 2.5558 11.3125 2.78329 10.6415 3.06154L9.87539 1.21409C10.643 0.895765 11.4408 0.635479 12.2633 0.438703ZM7.63905 2.3557L8.68564 4.06C8.05912 4.44473 7.46495 4.87756 6.90831 5.35342L5.60871 3.83321C6.24434 3.28982 6.92307 2.79537 7.63905 2.3557ZM3.83321 5.60872L5.35342 6.90832C4.87756 7.46495 4.44473 8.05913 4.06 8.68564L2.35569 7.63905C2.79537 6.92307 3.28982 6.24435 3.83321 5.60872ZM1.21409 9.8754L3.06154 10.6415C2.78328 11.3125 2.5558 12.0098 2.38381 12.7286L0.438703 12.2633C0.635478 11.4408 0.895764 10.643 1.21409 9.8754ZM0.0486182 14.7434C0.0164067 15.158 0 15.5771 0 16C0 16.4229 0.0164067 16.842 0.0486183 17.2566L2.04261 17.1017C2.0144 16.7385 2 16.3711 2 16C2 15.6289 2.0144 15.2615 2.04261 14.8983L0.0486182 14.7434ZM0.438703 19.7367L2.38381 19.2714C2.5558 19.9902 2.78329 20.6875 3.06154 21.3585L1.21409 22.1246C0.895765 21.357 0.635479 20.5592 0.438703 19.7367ZM2.3557 24.361L4.06 23.3144C4.44473 23.9409 4.87756 24.5351 5.35342 25.0917L3.83321 26.3913C3.28982 25.7557 2.79537 25.0769 2.3557 24.361ZM5.60872 28.1668L6.90832 26.6466C7.46495 27.1224 8.05913 27.5553 8.68564 27.94L7.63905 29.6443C6.92307 29.2046 6.24435 28.7102 5.60872 28.1668ZM9.8754 30.7859L10.6415 28.9385C11.3125 29.2167 12.0098 29.4442 12.7286 29.6162L12.2633 31.5613C11.4408 31.3645 10.643 31.1042 9.8754 30.7859ZM14.7434 31.9514L14.8983 29.9574C15.2615 29.9856 15.6289 30 16 30C16.3711 30 16.7385 29.9856 17.1017 29.9574L17.2566 31.9514C16.842 31.9836 16.4229 32 16 32C15.5771 32 15.158 31.9836 14.7434 31.9514ZM19.7367 31.5613L19.2714 29.6162C19.9902 29.4442 20.6875 29.2167 21.3585 28.9385L22.1246 30.7859C21.357 31.1042 20.5592 31.3645 19.7367 31.5613ZM24.361 29.6443L23.3144 27.94C23.9409 27.5553 24.5351 27.1224 25.0917 26.6466L26.3913 28.1668C25.7557 28.7102 25.0769 29.2046 24.361 29.6443ZM28.1668 26.3913L26.6466 25.0917C27.1224 24.535 27.5553 23.9409 27.94 23.3144L29.6443 24.361C29.2046 25.0769 28.7102 25.7557 28.1668 26.3913ZM30.7859 22.1246L28.9385 21.3585C29.2167 20.6875 29.4442 19.9902 29.6162 19.2714L31.5613 19.7367C31.3645 20.5592 31.1042 21.357 30.7859 22.1246Z"
    fill="currentColor" />
  <g clip-path="url(#circleClip)">
    <g style="transform: scale(0.8125); transform-origin: 50% 50%;"><g fill="currentColor" clip-path="url(#clip0_298_798)"><path d="M15.09 4.92 9.21 8.53l2.68 1.61zM11.56 10.67 8.92 9.08v5.9zM8.92 18.71v4.22l2.13-1.29zM22.77 8.47l-5.93-3.62 3.23 5.25zM15.99 19.63l6.87-3.78-6.87-11.21-6.88 11.21zM23.06 14.98V9.02l-2.67 1.61zM9.21 23.49l5.75 3.53-3.54-4.87c-.59.36-2.22 1.34-2.22 1.34z"/><path d="M16.14 22.3a.29.29 0 0 1-.31 0l-6.11-3.54 6.26 8.62 6.21-8.59zM20.93 21.6l2.13 1.28v-4.23z"/><path d="M16 0C7.16 0 0 7.17 0 16s7.16 16 16 16 16-7.16 16-16S24.84 0 16 0m0 31.14C7.65 31.14.86 24.35.86 16.01S7.65.88 16 .88s15.13 6.79 15.13 15.13S24.34 31.14 16 31.14"/><path d="M16 1.62C8.07 1.62 1.61 8.07 1.61 16S8.06 30.38 16 30.38 30.38 23.93 30.38 16 23.93 1.62 16 1.62M8.3 8.63v-.05c-.02-.13.04-.25.14-.32l7.41-4.55c.1-.06.22-.06.32 0l7.35 4.49c.09.06.15.16.15.27v7.45c0 .13-.08.24-.2.29l-7.35 4.04c-.09.05-.21.05-.3 0l-7.24-3.98c-.17 0-.3-.14-.3-.31V8.63zm15.38 14.76c.02.12-.04.24-.14.31l-7.41 4.57c-.1.06-.23.06-.33 0l-7.35-4.51a.32.32 0 0 1-.15-.29v-5.69c-.01-.17.12-.32.29-.33.06 0 .12.01.18.04l7.22 4.19 7.16-4.15.04-.02c.05-.04.12-.06.19-.06.17 0 .31.14.31.31v5.63z"/><path d="m17.06 26.96 5.71-3.53-2.2-1.33z"/></g><defs><clipPath id="clip0_298_798"><path fill="#fff" d="M0 0h32v32H0z"/></clipPath></defs></g>
  </g>
  <defs>
    <clipPath id="circleClip">
      <circle cx="16" cy="16" r="13" />
    </clipPath>
  </defs>
</svg>

<svg xmlns="http://www.w3.org/2000/svg" width="32" height="32" fill="none" viewBox="0 0 32 32"><path fill="currentColor" fill-rule="evenodd" d="m31.951 17.257-1.994-.155a14 14 0 0 0 0-2.204l1.994-.155a16 16 0 0 1 0 2.514m-.39-4.994-1.945.466q-.26-1.08-.677-2.087l1.847-.767q.478 1.154.775 2.388M29.644 7.64 27.94 8.686a14 14 0 0 0-1.293-1.778l1.52-1.3a16 16 0 0 1 1.477 2.031m-3.253-3.806-1.3 1.52a14 14 0 0 0-1.777-1.293l1.047-1.704q1.076.661 2.03 1.477m-4.266-2.619-.767 1.848a14 14 0 0 0-2.087-.678l.466-1.945c.822.196 1.62.457 2.388.775M17.257.05l-.155 1.994a14 14 0 0 0-2.204 0L14.743.049a16 16 0 0 1 2.514 0m-4.994.39.466 1.945q-1.08.26-2.087.678l-.767-1.848A16 16 0 0 1 12.263.44M7.64 2.356 8.686 4.06a14 14 0 0 0-1.778 1.293l-1.3-1.52A16 16 0 0 1 7.64 2.356M3.833 5.609l1.52 1.3A14 14 0 0 0 4.06 8.685L2.356 7.639q.661-1.076 1.477-2.03M1.214 9.875l1.848.767a14 14 0 0 0-.678 2.087l-1.945-.466c.196-.822.457-1.62.775-2.388M.05 14.743a16 16 0 0 0 0 2.514l1.994-.155a14 14 0 0 1 0-2.204zm.39 4.994 1.945-.466q.26 1.08.678 2.087l-1.848.767a16 16 0 0 1-.775-2.388m1.917 4.624 1.704-1.047q.579.941 1.293 1.778l-1.52 1.3a16 16 0 0 1-1.477-2.031m3.253 3.806 1.3-1.52q.835.714 1.777 1.293l-1.047 1.704a16 16 0 0 1-2.03-1.477m4.266 2.619.767-1.848q1.007.42 2.087.678l-.466 1.945a16 16 0 0 1-2.388-.775m4.868 1.165.155-1.994a14 14 0 0 0 2.204 0l.155 1.994a16 16 0 0 1-2.514 0m4.994-.39-.466-1.945q1.08-.26 2.087-.677l.767 1.847a16 16 0 0 1-2.388.775m4.624-1.917-1.047-1.704q.941-.579 1.778-1.293l1.3 1.52a16 16 0 0 1-2.031 1.477m3.806-3.253-1.52-1.3a14 14 0 0 0 1.293-1.777l1.704 1.047q-.661 1.076-1.477 2.03m2.619-4.266-1.848-.767q.42-1.007.678-2.087l1.945.466a16 16 0 0 1-.775 2.388" clip-rule="evenodd"/><g clip-path="url(#q3qsw__circleClip)"><g style="transform:scale(.8125);transform-origin:50% 50%"><g fill="currentColor" clip-path="url(#q3qsw__o8vq9__clip0_298_798)"><path d="M15.09 4.92 9.21 8.53l2.68 1.61zm-3.53 5.75L8.92 9.08v5.9zm-2.64 8.04v4.22l2.13-1.29zM22.77 8.47l-5.93-3.62 3.23 5.25zm-6.78 11.16 6.87-3.78-6.87-11.21-6.88 11.21zm7.07-4.65V9.02l-2.67 1.61zM9.21 23.49l5.75 3.53-3.54-4.87c-.59.36-2.22 1.34-2.22 1.34z"/><path d="M16.14 22.3a.29.29 0 0 1-.31 0l-6.11-3.54 6.26 8.62 6.21-8.59zm4.79-.7 2.13 1.28v-4.23z"/><path d="M16 0C7.16 0 0 7.17 0 16s7.16 16 16 16 16-7.16 16-16S24.84 0 16 0m0 31.14C7.65 31.14.86 24.35.86 16.01S7.65.88 16 .88s15.13 6.79 15.13 15.13S24.34 31.14 16 31.14"/><path d="M16 1.62C8.07 1.62 1.61 8.07 1.61 16S8.06 30.38 16 30.38 30.38 23.93 30.38 16 23.93 1.62 16 1.62M8.3 8.63v-.05c-.02-.13.04-.25.14-.32l7.41-4.55c.1-.06.22-.06.32 0l7.35 4.49c.09.06.15.16.15.27v7.45c0 .13-.08.24-.2.29l-7.35 4.04c-.09.05-.21.05-.3 0l-7.24-3.98c-.17 0-.3-.14-.3-.31V8.63zm15.38 14.76c.02.12-.04.24-.14.31l-7.41 4.57c-.1.06-.23.06-.33 0l-7.35-4.51a.32.32 0 0 1-.15-.29v-5.69c-.01-.17.12-.32.29-.33.06 0 .12.01.18.04l7.22 4.19 7.16-4.15.04-.02c.05-.04.12-.06.19-.06.17 0 .31.14.31.31v5.63z"/><path d="m17.06 26.96 5.71-3.53-2.2-1.33z"/></g><defs><clipPath id="q3qsw__o8vq9__clip0_298_798"><path fill="#fff" d="M0 0h32v32H0z"/></clipPath></defs></g></g><defs><clipPath id="q3qsw__circleClip"><circle cx="16" cy="16" r="13"/></clipPath></defs></svg>
